dist/svgs/carbon-icons/svg/notification-on.svg

<?xml version="1.0" encoding="UTF-8"?>
<svg width="14px" height="16px" viewBox="0 0 14 16" version="1.1" xmlns="http://www.w3.org/2000/svg" xmlns:xlink="http://www.w3.org/1999/xlink">
    <!-- Generator: Sketch 50.2 (55047) - http://www.bohemiancoding.com/sketch -->
    <title>notification-on</title>
    <desc>Created with Sketch.</desc>
    <defs></defs>
    <g id="notification-on" stroke="none" stroke-width="1" fill="none" fill-rule="evenodd">
        <path d="M11.1985191,9.90011785 C11.0725237,9.80569868 10.9983619,9.65744779 10.9983619,9.5 L10.9983619,6.22918772 C10.9983619,4.02451154 9.21432327,2.23557672 7.00965537,2.22953441 C4.80723634,2.22349827 3.01674765,4.00367166 3.01005865,6.2060888 L2.99999769,9.51875645 C2.99951838,9.67657466 2.92455752,9.82490287 2.79777981,9.91889346 L1,11.2517333 L1,13 L13,13 L13,11.2501228 L11.1985191,9.90011785 Z M4.55000906,14 L0.5,14 C0.223857625,14 0,13.7761424 0,13.5 L0,11 C0,10.8416464 0.0750129953,10.6926534 0.202220186,10.5983444 L2.00076396,9.26493818 L2.01006327,6.2030517 C2.01790393,3.62143977 3.98536732,1.50369071 6.5,1.2541206 L6.5,-2.66453526e-14 L7.5,-2.66453526e-14 L7.5,1.25435767 C10.026606,1.50595214 11.9983619,3.637827 11.9983619,6.22918772 L11.9983619,9.24987719 L13.7998428,10.5998821 C13.9258381,10.6943013 14,10.8425522 14,11 L14,13.5 C14,13.7761424 13.7761424,14 13.5,14 L9.44999094,14 C9.21835578,15.1411202 8.20947896,16 7,16 C5.79052104,16 4.78164422,15.1411202 4.55000906,14 Z M5.58535285,14 C5.79127106,14.5825962 6.34689059,15 7,15 C7.65310941,15 8.20872894,14.5825962 8.41464715,14 L5.58535285,14 Z" id="bel" fill="#000000" fill-rule="nonzero"></path>
    </g>
</svg>

<svg xmlns="http://www.w3.org/2000/svg" viewBox="0 0 14 16"><path d="M11.199 9.9a.5.5 0 01-.2-.4V6.23a4 4 0 00-3.99-4A3.989 3.989 0 003.01 6.206L3 9.52a.5.5 0 01-.202.4L1 11.252V13h12v-1.75L11.199 9.9zM4.55 14H.5a.5.5 0 01-.5-.5V11a.5.5 0 01.202-.402l1.799-1.333.01-3.062A4.99 4.99 0 016.5 1.254V0h1v1.254a5 5 0 014.498 4.975v3.02L13.8 10.6a.5.5 0 01.2.4v2.5a.5.5 0 01-.5.5H9.45a2.5 2.5 0 01-4.9 0zm1.035 0a1.5 1.5 0 002.83 0h-2.83z"/></svg>
